X: 17649
T: Holes In The Road
R: strathspey
M: 4/4
K: Adorian
E<A A>B C>d e>d|D<G G>B d>e d>B|E<A A>B C>d e>a|g<e d>B A2 A>G:|
g<e d>B A2 A>g|e<a a>g e>d e>f|g>a g>e d>B G>B|A>B C>B (3ABC d>a|
g<e d>B A2 A>g|e<a a>g (3edB d>e|g>g g>e (3dBG B>d|A>A A>B C>d e>a|g<e d>B A>A A>G||

